X: 758
T: Absent Minded Man, The
R:jig
B:O'Neill's 758
Z:Transcribed by Michael Hogan
M:6/8
L:1/8
K:A
d | cAc efg | aed c2A | dfd cec | dBB B2d |
cAc efg | aed c2A | Bba gfg | aAA A2 :|
c | ecc Acc | ecc Acc | dBB GBB | dBB GBB |
ecc fdd | gee aff | ecc dBG | ABA A2 :|
